X: 3078
T: SUNDRUM HOUSE
C: Hugh Dunlop
Q:"Reel."
R: Reel.
%R:reel
B: James Kerr "Merry Melodies" v.3 p.10 #78
Z: 2016 John Chambers <jc:trillian.mit.edu>
M: C
L: 1/8
K: A
|: Aeef edcB | AEcE dEBE |\
[1 Aeef edcB | Aagf e2e2 :|\
[2 AaAg AfAe | ecdB A2A2 |]
|: eaag aece | fBBc defe |\
[1 eaag aece | Becf e2e2 :|\
[2 ceAe dfBf | eagb a2A2 |]

%%sep 1 1 500
%%sep 1 1 500

